X:35
T:Trip to King Street. VWMLa.035
%%VWML:Anon2-3049-p21-0
F:http://www.vwml.org/record/Anon2/3049/p21
S:Anon. MS, late 18thC, Vaughan Williams Mem. Library
O:England;Yorkshire
Z:vmp/efdss.Simon Wilson. Reviewed PJH 2008.
M:C|
L:1/8
Q:1/2=90
K:C
G|:c3d cdef|g2g2 e2c2|G3A GABc|dedc B2AG|\
c3d cdef|g2g2 e2c2|G3_B AFfd|c2B2 c2z2:|
|:gefg a2ze|fdef g2zf|ecde fgef|decd B2AG|\
gefg a2ze|fdef g2zf|ecde fgef|edcB c2z2:|
T:Just a Going. VWMLa.036
R:Reel
S:Anon. MS, late 18thC, Vaughan Williams Mem. Library
O:England;Yorkshire
Z:vmp/efdss.Simon Wilson. Reviewed PJH 2008.
M:C
L:1/8
Q:2/4=80
K:D
(f/g/a) fd (f/g/a) fd|gecA gecA|\
G/G/GG2 (FA)Ag|fdec d2D2:|
|:(f/g/a) bg (e/f/g) af|(d/e/f) ed cBAG|\
FAdf GBdg|fdec d2D2:|
